packages/ui-solid/icons/retry_28.svg

<svg width="28" height="28" viewBox="0 0 28 28" fill="none" xmlns="http://www.w3.org/2000/svg">
<path fill-rule="evenodd" clip-rule="evenodd" d="M15.914 2.28559C16.3086 2.67204 16.3151 3.30517 15.9287 3.69973L12.9929 6.69711C13.3239 6.66154 13.6599 6.6433 14 6.6433C19.2662 6.6433 23.5 10.9961 23.5 16.3217C23.5 21.6472 19.2662 26 14 26C8.73382 26 4.5 21.6472 4.5 16.3217C4.5 15.7694 4.94772 15.3217 5.5 15.3217C6.05228 15.3217 6.5 15.7694 6.5 16.3217C6.5 20.582 9.87734 24 14 24C18.1227 24 21.5 20.582 21.5 16.3217C21.5 12.0613 18.1227 8.6433 14 8.6433C12.8325 8.6433 11.728 8.91584 10.7427 9.40309L15.9287 14.6979C16.3151 15.0925 16.3086 15.7256 15.914 16.1121C15.5195 16.4985 14.8863 16.4919 14.4999 16.0974L8.42845 9.89855C8.04766 9.50977 8.04766 8.88787 8.42845 8.49909L14.4999 2.30027C14.8863 1.90572 15.5195 1.89914 15.914 2.28559Z" fill="#007AFF"/>
</svg>

<svg xmlns="http://www.w3.org/2000/svg" width="28" height="28" fill="none"><path fill="currentColor" fill-rule="evenodd" d="M15.914 2.286a1 1 0 0 1 .015 1.414l-2.936 2.997A9 9 0 0 1 14 6.643c5.266 0 9.5 4.353 9.5 9.679C23.5 21.647 19.266 26 14 26s-9.5-4.353-9.5-9.678a1 1 0 1 1 2 0C6.5 20.582 9.877 24 14 24s7.5-3.418 7.5-7.678-3.377-7.679-7.5-7.679a7.3 7.3 0 0 0-3.257.76l5.186 5.295a1 1 0 0 1-1.43 1.4l-6.07-6.2a1 1 0 0 1 0-1.399l6.07-6.199a1 1 0 0 1 1.415-.014" clip-rule="evenodd"/></svg>
